X:720
T:My Lady Marion
C:Colin Hume, 1985
L:1/4
M:2/2
R:Reel
S:Colin Hume's website,  colinhume.com  - chords can also be printed below the stave.
%%MIDI gchord bb
%%MIDI program 57     Trombone
%%MIDI chordprog 57   Trombone
%%MIDI bassprog 58    Tuba
Q:1/2=60
K:G
P:A
|: "G"B/c/d "D7/F#"d>c | "Em"BG- "/D"GF | "C"G/A/B "A7/C#"A>G | "D"A2- "D7"A2 |\
"G"B/c/d "D7/F#"d>c | "Em"BG- "/D"GF | "C"G/A/B "D"A>G | "G"G4 :|
P:B
|: "Am"A/B/c "D7"B>A | "G"Bd- "Bm"d2 | "F#7"^c/d/e "/"d>c | "Bm"df- "D7"f2 |\
"G"g/a/b "D"a>d | "Em"e/f/g "Bm"f>B | "C"c/d/e "G/D"dc/B/ | "D7"A2 "G"G2 :|

